resources/devices/midi_controller_pad_1.svg

<?xml version="1.0" encoding="UTF-8" standalone="no"?>
<svg
   id="svg7183"
   viewBox="0 0 90.000001 30.000001"
   version="1.1"
   sodipodi:docname="midi_controller_pad_1.svg"
   inkscape:version="1.3.2 (091e20e, 2023-11-25)"
   width="90"
   height="30"
   xmlns:inkscape="http://www.inkscape.org/namespaces/inkscape"
   xmlns:sodipodi="http://sodipodi.sourceforge.net/DTD/sodipodi-0.dtd"
   xmlns="http://www.w3.org/2000/svg"
   xmlns:svg="http://www.w3.org/2000/svg"
   xmlns:rdf="http://www.w3.org/1999/02/22-rdf-syntax-ns#"
   xmlns:cc="http://creativecommons.org/ns#"
   xmlns:dc="http://purl.org/dc/elements/1.1/">
  <defs
     id="defs1" />
  <sodipodi:namedview
     id="namedview1"
     pagecolor="#ffffff"
     bordercolor="#000000"
     borderopacity="0.25"
     inkscape:showpageshadow="2"
     inkscape:pageopacity="0.0"
     inkscape:pagecheckerboard="0"
     inkscape:deskcolor="#d1d1d1"
     inkscape:current-layer="g1" />
  <g
     id="g1"
     transform="matrix(0.07017154,0,0,0.07017154,-8.430695e-4,3.4175284)">
    <path
       id="rect15042"
       fill="none"
       d="M 47.91728,4.248801 H 1234.678 c 24.1774,0 43.642,19.46424 43.642,43.64203 V 282.22795 c 0,24.17709 -19.4643,43.64203 -43.642,43.64203 H 47.91728 c -24.177439,0 -43.6420305,-19.46424 -43.6420305,-43.64203 V 47.890831 c 0,-24.177438 19.4642405,-43.64203 43.6420305,-43.64203 z"
       style="fill:#808080;stroke:#000000;stroke-width:8.52647" />
    <path
       id="rect15184"
       fill="#ffffff"
       d="M 236.83225,44.21438 H 520.18706 V 288.72233 H 236.83225 Z"
       style="stroke:#000000;stroke-width:8.55047502;stroke-dasharray:none" />
    <path
       id="rect15044"
       style="fill:#ffffff;stroke:#000000;stroke-width:8.55047502;stroke-dasharray:none"
       d="m 142.125,189.16016 v 24.87695 h 56.85938 v -24.87695 z m 0,42.21679 v 24.87696 h 56.85938 v -24.87696 z m -102.306641,42.2168 v 24.87695 h 56.859375 v -24.87695 z m 102.306641,0 v 24.87695 h 56.85938 v -24.87695 z" />
    <path
       id="rect15188"
       style="fill:#bfbfbf;stroke:#000000;stroke-width:8.55047502;stroke-dasharray:none"
       d="M 573.89258,36.890625 V 155.32227 H 720.31836 V 36.890625 Z m 170.5293,0 V 155.32227 H 890.84766 V 36.890625 Z m 170.52734,0 V 155.32227 H 1061.373 V 36.890625 Z m 170.52538,0 V 155.32227 h 146.4238 V 36.890625 Z M 573.99219,173.1582 V 291.58984 H 720.41211 V 173.1582 Z m 170.52929,0 V 291.58984 H 890.94141 V 173.1582 Z m 170.52735,0 V 291.58984 H 1061.4688 V 173.1582 Z m 170.52537,0 v 118.43164 h 146.4199 V 173.1582 Z" />
  </g>
  <metadata
     id="metadata1">
    <rdf:RDF>
      <cc:Work>
        <dc:format>image/svg+xml</dc:format>
        <dc:type
           rdf:resource="http://purl.org/dc/dcmitype/StillImage" />
        <cc:license
           rdf:resource="http://creativecommons.org/publicdomain/zero/1.0/" />
        <dc:publisher>
          <cc:Agent
             rdf:about="http://openclipart.org/">
            <dc:title>Openclipart</dc:title>
          </cc:Agent>
        </dc:publisher>
        <dc:title>MIDI Pad Controller Interface</dc:title>
        <dc:date>2012-09-21T21:31:46</dc:date>
        <dc:description>Protable MIDI pad device for a music rider. </dc:description>
        <dc:source>http://openclipart.org/detail/172446/midi-pad-controller-interface-by-diegomadero-172446</dc:source>
        <dc:creator>
          <cc:Agent>
            <dc:title>diegomadero</dc:title>
          </cc:Agent>
        </dc:creator>
        <dc:subject>
          <rdf:Bag>
            <rdf:li>audio</rdf:li>
            <rdf:li>clip art</rdf:li>
            <rdf:li>clipart</rdf:li>
            <rdf:li>controlador</rdf:li>
            <rdf:li>controller</rdf:li>
            <rdf:li>digital</rdf:li>
            <rdf:li>interface</rdf:li>
            <rdf:li>midi</rdf:li>
            <rdf:li>nano</rdf:li>
            <rdf:li>pad</rdf:li>
            <rdf:li>sliders</rdf:li>
            <rdf:li>visuals</rdf:li>
          </rdf:Bag>
        </dc:subject>
      </cc:Work>
      <cc:License
         rdf:about="http://creativecommons.org/publicdomain/zero/1.0/">
        <cc:permits
           rdf:resource="http://creativecommons.org/ns#Reproduction" />
        <cc:permits
           rdf:resource="http://creativecommons.org/ns#Distribution" />
        <cc:permits
           rdf:resource="http://creativecommons.org/ns#DerivativeWorks" />
      </cc:License>
    </rdf:RDF>
  </metadata>
</svg>

<svg xmlns="http://www.w3.org/2000/svg" width="90" height="30">
    <path fill="none" d="M47.917 4.249h1186.761c24.177 0 43.642 19.464 43.642 43.642v234.337c0 24.177-19.464 43.642-43.642 43.642H47.918c-24.178 0-43.643-19.464-43.643-43.642V47.891c0-24.178 19.464-43.642 43.642-43.642z" style="fill:gray;stroke:#000;stroke-width:8.52647" transform="translate(0 3.418)scale(.07017)"/>
    <path fill="#fff" d="M236.832 44.214h283.355v244.508H236.832Z" style="stroke:#000;stroke-width:8.55047502;stroke-dasharray:none" transform="translate(0 3.418)scale(.07017)"/>
    <path d="M142.125 189.16v24.877h56.86V189.16zm0 42.217v24.877h56.86v-24.877zM39.818 273.594v24.877h56.86v-24.877zm102.307 0v24.877h56.86v-24.877z" style="fill:#fff;stroke:#000;stroke-width:8.55047502;stroke-dasharray:none" transform="translate(0 3.418)scale(.07017)"/>
    <path d="M573.893 36.89v118.432h146.425V36.891Zm170.529 0v118.432h146.426V36.891Zm170.527 0v118.432h146.424V36.891Zm170.526 0v118.432h146.423V36.891ZM573.992 173.159V291.59h146.42V173.158Zm170.53 0V291.59h146.42V173.158Zm170.527 0V291.59h146.42V173.158Zm170.525 0V291.59h146.42V173.158Z" style="fill:#bfbfbf;stroke:#000;stroke-width:8.55047502;stroke-dasharray:none" transform="translate(0 3.418)scale(.07017)"/>
</svg>
